Newaita/actions/22/document-decrypt.svg

<svg height="22" viewBox="0 0 22 22" width="22" xmlns="http://www.w3.org/2000/svg"><g fill="#424242"><path d="m10.914062 1.992188c-3.023437 0-5.457031 2.433593-5.457031 5.457031v.453125h1.820313v-.453125c0-2.015625 1.621094-3.640625 3.636718-3.640625 2.015626 0 3.640626 1.625 3.640626 3.640625v5.457031h1.816406v-5.457031c0-3.023438-2.433594-5.457031-5.457032-5.457031zm0 0"/><path d="m5.914062 7.449219h.90625c.253907 0 .457032.152343.457032.339843v.226563c0 .191406-.203125.34375-.457032.34375h-.90625c-.253906 0-.457031-.152344-.457031-.34375v-.226563c0-.1875.203125-.339843.457031-.339843zm0 0"/><path d="m5.457031 11.085938c-1.007812 0-1.820312.8125-1.820312 1.820312v5.457031c0 1.007813.8125 1.820313 1.820312 1.820313h10.914063c1.007812 0 1.820312-.8125 1.820312-1.820313v-5.457031c0-1.007812-.8125-1.820312-1.820312-1.820312zm.910157 1.820312h9.097656c.503906 0 .90625.40625.90625.910156v3.636719c0 .503906-.402344.910156-.90625.910156h-9.097656c-.503907 0-.910157-.40625-.910157-.910156v-3.636719c0-.503906.40625-.910156.910157-.910156zm0 0"/></g></svg>

<?xml version="1.0" encoding="UTF-8"?>
<svg xmlns="http://www.w3.org/2000/svg" xmlns:xlink="http://www.w3.org/1999/xlink" width="22px" height="22px" viewBox="0 0 22 22" version="1.1">
<g id="surface1">
<path style=" stroke:none;fill-rule:nonzero;fill:rgb(25.882354%,25.882354%,25.882354%);fill-opacity:1;" d="M 10.914062 1.992188 C 7.890625 1.992188 5.457031 4.425781 5.457031 7.449219 L 5.457031 7.902344 L 7.277344 7.902344 L 7.277344 7.449219 C 7.277344 5.433594 8.898438 3.808594 10.914062 3.808594 C 12.929688 3.808594 14.554688 5.433594 14.554688 7.449219 L 14.554688 12.90625 L 16.371094 12.90625 L 16.371094 7.449219 C 16.371094 4.425781 13.9375 1.992188 10.914062 1.992188 Z M 10.914062 1.992188 "/>
<path style=" stroke:none;fill-rule:nonzero;fill:rgb(25.882354%,25.882354%,25.882354%);fill-opacity:1;" d="M 5.914062 7.449219 L 6.820312 7.449219 C 7.074219 7.449219 7.277344 7.601562 7.277344 7.789062 L 7.277344 8.015625 C 7.277344 8.207031 7.074219 8.359375 6.820312 8.359375 L 5.914062 8.359375 C 5.660156 8.359375 5.457031 8.207031 5.457031 8.015625 L 5.457031 7.789062 C 5.457031 7.601562 5.660156 7.449219 5.914062 7.449219 Z M 5.914062 7.449219 "/>
<path style=" stroke:none;fill-rule:nonzero;fill:rgb(25.882354%,25.882354%,25.882354%);fill-opacity:1;" d="M 5.457031 11.085938 C 4.449219 11.085938 3.636719 11.898438 3.636719 12.90625 L 3.636719 18.363281 C 3.636719 19.371094 4.449219 20.183594 5.457031 20.183594 L 16.371094 20.183594 C 17.378906 20.183594 18.191406 19.371094 18.191406 18.363281 L 18.191406 12.90625 C 18.191406 11.898438 17.378906 11.085938 16.371094 11.085938 Z M 6.367188 12.90625 L 15.464844 12.90625 C 15.96875 12.90625 16.371094 13.3125 16.371094 13.816406 L 16.371094 17.453125 C 16.371094 17.957031 15.96875 18.363281 15.464844 18.363281 L 6.367188 18.363281 C 5.863281 18.363281 5.457031 17.957031 5.457031 17.453125 L 5.457031 13.816406 C 5.457031 13.3125 5.863281 12.90625 6.367188 12.90625 Z M 6.367188 12.90625 "/>
</g>
</svg>
